lib/brands/icons/vue.svg

<svg xmlns="http://www.w3.org/2000/svg" fill="none" aria-hidden="true" viewBox="0 0 48 48"><g id="vue-Icon"><g id="Group"><path id="Vector" fill="#41B883" d="M34.8 8.47498H42L24 39.525L6 8.47498H13.11H19.77L24 15.675L28.14 8.47498H34.8Z"/><path id="Vector_2" fill="#41B883" d="M6 8.47498L24 39.525L42 8.47498H34.8L24 27.105L13.11 8.47498H6Z"/><path id="Vector_3" fill="#35495E" d="M13.1099 8.47498L23.9999 27.195L34.7999 8.47498H28.1399L23.9999 15.675L19.7699 8.47498H13.1099Z"/></g></g></svg>

<svg xmlns="http://www.w3.org/2000/svg" fill="none" aria-hidden="true" viewBox="0 0 48 48"><path fill="#41B883" d="M34.8 8.475H42l-18 31.05L6 8.475h13.77l4.23 7.2 4.14-7.2h6.66Z"/><path fill="#41B883" d="m6 8.475 18 31.05 18-31.05h-7.2L24 27.105 13.11 8.475H6Z"/><path fill="#35495E" d="M13.11 8.475 24 27.195l10.8-18.72h-6.66l-4.14 7.2-4.23-7.2h-6.66Z"/></svg>
